X:1
T:Lassie look before ye
L:1/8
M:2/2
I:linebreak $
K:D
V:1 treble 
V:1
 DAFA DAFA | E=ccG E2 E2 | DAFA DAFA | FddA F2 D2 :| dfAf dfAf | =cdef g2 fe |$ dfAf dfAf | %7
 defg a2 fe | dfAf dfAf | =cdef g2 (e/f/g) | afge fdec | dBAG F2 D2 || %12
